X: 16
T: Morrison's
Z: Tuuuuuuuuuuunes!!!🎻
S: https://thesession.org/tunes/71#setting48881
R: jig
M: 6/8
L: 1/8
K: Edor
||:E3 BEB|EBE AFD|E2E BAB|dcB AFD|
E2E BEB|E2E AFD|G2G FGA|dcB AFD:||
||:Bee fee|aee fed|Bee f2e|fag fga|
Bee fee|aee f2f|gfe d2A|BAG FED:||

